.local/share/icons/Gruvbox-Plus-Dark/panel/16/audio-recorder-on.svg

<svg xmlns="http://www.w3.org/2000/svg" width="16" height="16" version="1.1">
 <defs>
  <style id="current-color-scheme" type="text/css">
   .ColorScheme-Text { color:#ebdbb2; } .ColorScheme-Highlight { color:#458588; }
  </style>
 </defs>
 <path style="fill:currentColor" class="ColorScheme-Text" d="M 3.8339844,6.024672 C 3.3737473,6.024672 3,6.4164229 3,6.899672 2.9999003,6.932213 3.00251,6.964978 3.00586,6.997328 3.0576455,9.075757 4.7505832,10.874892 7,11.273438 V 12 H 5 c -0.554,0 -1,0.446 -1,1 0,0.554 0.446,1 1,1 H 10.564453 11 c 0.554,0 1,-0.446 1,-1 0,-0.554 -0.446,-1 -1,-1 H 9 v -0.726562 c 2.252569,-0.399125 3.948746,-2.203541 3.996094,-4.2858754 0.003,-0.028949 0.0037,-0.058771 0.0039,-0.087891 0,-0.4832491 -0.373747,-0.875 -0.833984,-0.875 -0.460237,6e-7 -0.832032,0.3917513 -0.832032,0.875 h -0.01367 C 11.250704,8.7089848 10.144502,9.625 8,9.625 5.8553352,9.625 4.7492888,8.7089848 4.6796875,6.899672 h -0.013672 c 0,-0.4832495 -0.3717939,-0.8750005 -0.8320311,-0.875 z"/>
 <rect style="fill:currentColor" class="ColorScheme-Text" width="8" height="6" x="-9" y="-11" rx="3.334" ry="3" transform="matrix(0,-1,-1,0,0,0)"/>
</svg>

<svg width="16" height="16" version="1.1" xmlns="http://www.w3.org/2000/svg">
  <defs>
    <style id="current-color-scheme" type="text/css">.ColorScheme-Text { color:#ebdbb2; } .ColorScheme-Highlight { color:#458588; } .ColorScheme-NeutralText { color:#fe8019; } .ColorScheme-PositiveText { color:#689d6a; } .ColorScheme-NegativeText { color:#fb4934; }</style>
  </defs>
  <path class="ColorScheme-Highlight" d="m3.834 6.025c-0.4602 0-0.834 0.3918-0.834 0.875-9.97e-5 0.03254 0.00251 0.06531 0.00586 0.09766 0.05179 2.078 1.745 3.878 3.994 4.276v0.7266h-2c-0.554 0-1 0.446-1 1s0.446 1 1 1h6c0.554 0 1-0.446 1-1s-0.446-1-1-1h-2v-0.7266c2.253-0.3991 3.949-2.204 3.996-4.286 3e-3 -0.02895 0.0037-0.05877 0.0039-0.08789 0-0.4832-0.3737-0.875-0.834-0.875-0.4602 6e-7 -0.832 0.3918-0.832 0.875h-0.01367c-0.0696 1.809-1.176 2.725-3.32 2.725-2.145 0-3.251-0.916-3.32-2.725h-0.01367c0-0.4832-0.3718-0.875-0.832-0.875z" fill="currentColor"/>
  <path class="ColorScheme-Highlight" d="m11 4.334v1.332c0 1.847-1.338 3.334-3 3.334s-3-1.487-3-3.334v-1.332c0-1.847 1.338-3.334 3-3.334s3 1.487 3 3.334z" fill="currentColor"/>
</svg>
